RestoDelMundo/Varios/Federaciones/Austrian Football Association Old.svg

<svg xmlns="http://www.w3.org/2000/svg" viewBox="0 0 660 660"><path d="M81.196 6.5h499.368v399.39c0 137.55-112.507 249.683-249.68 249.683-137.181 0-249.314-112.133-249.314-249.683h-.374z"/><path fill="#fff" d="M557.761 405.89c-.368 68.401-30.271 129.704-82.975 175.306-35.509 28.03-75.127 44.85-121.105 50.833-11.589.747-22.797 1.121-34.388.747-45.602-3.364-86.341-17.943-123.72-44.853-53.826-42.24-85.966-101.298-91.205-170.073L104 159.569h453.76z"/><path fill="#ee3124" d="M330.884 601.377c107.274 0 195.11-87.837 195.11-195.488 0-106.897-87.836-194.735-195.11-194.735s-195.113 87.837-195.113 194.735c0 107.651 87.839 195.488 195.113 195.488"/><path fill="#fff" d="M330.884 554.281c81.478 0 148.014-66.53 148.014-148.391 0-81.109-66.536-147.639-148.014-147.639-81.486 0-148.02 66.53-148.02 147.639 0 81.861 66.534 148.391 148.02 148.391"/><path fill="#ee3124" d="M330.884 516.902c60.921 0 110.635-50.085 110.635-111.012 0-60.922-49.714-110.266-110.635-110.266-60.93 0-110.642 49.344-110.642 110.266.001 60.927 49.713 111.012 110.642 111.012"/><path d="M330.884 478.032c39.244 0 71.761-32.523 71.761-72.143s-32.517-71.39-71.761-71.39c-39.25 0-71.768 31.77-71.768 71.39s32.518 72.143 71.768 72.143"/><path fill="#fff" d="M104 28.001h453.76v113.626H104Z"/><path d="M196.324 135.651c-34.762 0-57.191-20.182-57.191-50.459 0-14.579 5.606-26.539 13.455-34.387 8.221-8.222 16.446-11.964 26.915-14.58 4.857-1.121 10.464-1.496 15.695-1.496 21.684 0 40.746 8.223 49.713 23.175 5.233 7.852 7.479 16.446 7.479 26.164 0 19.067-8.225 34.762-25.045 44.48-8.597 4.486-19.061 7.103-31.021 7.103m-.376-23.549c7.474 0 14.575-3.365 18.686-11.958 1.872-4.112 2.994-8.974 2.994-14.952 0-8.597-2.242-15.324-5.232-19.812-3.366-4.111-9.344-7.477-16.071-7.477-7.853 0-14.956 4.111-19.068 12.334-1.866 4.112-2.986 8.974-2.986 14.955 0 8.97 2.242 15.697 7.098 20.928 3.364 3.742 8.222 5.982 14.579 5.982M336.49 135.651h-32.147V34.728h77.745v24.669H336.49v16.448h36.629v24.298H336.49ZM485.999 135.651h-51.954V34.728h51.203c12.335 0 21.678 1.87 27.661 5.607 7.849 4.861 11.96 11.59 11.96 20.559 0 8.598-4.482 15.701-13.832 21.308 10.47 2.617 17.197 11.215 17.197 23.174 0 8.97-2.615 16.071-7.848 20.932-3.365 3.361-10.838 6.727-17.571 7.848-3.359 1.12-8.968 1.495-16.816 1.495m-8.596-78.119h-10.464v17.942h12.334c10.463 0 14.201-4.111 14.201-8.973 0-4.114-2.617-7.474-6.727-8.225-1.122-.373-4.858-.744-9.344-.744m2.99 35.884h-13.455v19.061h13.455c13.08 0 16.446-3.366 16.446-9.719 0-5.982-2.992-9.342-16.446-9.342"/><path fill="#ee3124" d="M170.528 181.997c22.053 0 40.373 16.071 40.373 35.885s-18.319 36.258-40.373 36.258c-22.422 0-40.738-16.445-40.738-36.258s18.316-35.885 40.738-35.885"/><path d="M145.115 32.863c6.35 0 11.212 4.481 11.212 10.088 0 5.233-4.862 9.719-11.212 9.719-5.982 0-11.215-4.487-11.215-9.719 0-5.607 5.233-10.088 11.215-10.088M246.407 32.863c-6.353 0-11.215 4.481-11.215 10.088 0 5.233 4.862 9.719 11.215 9.719s11.214-4.487 11.214-9.719c.001-5.607-4.862-10.088-11.214-10.088"/><path fill="#ee3124" d="M491.232 254.14c-22.053 0-40.369-16.445-40.369-36.258s18.316-35.885 40.369-35.885c22.429 0 40.74 16.071 40.74 35.885s-18.311 36.258-40.74 36.258"/><path fill="#fff" d="m335.366 403.65 22.427 14.95 18.316-16.07-1.125-27.662-20.928-14.579-19.061 14.949ZM265.844 375.989l1.12 23.924 20.559-3.742 13.083-24.293-2.615-22.43-17.196 5.232c-6.353 6.358-11.214 13.461-14.951 21.309M310.326 420.841l.37 25.421 20.556 14.574 23.55-14.2 1.496-23.925-22.429-15.699ZM282.664 448.875l24.296-3.735-.376-24.299-19.438-19.438-20.557 3.366-1.496 25.045ZM332.378 478.032v-14.205l23.175-13.83 25.413-.746.751 7.473c-12.709 12.709-30.278 20.557-49.339 21.308M382.838 455.603l-.75-7.476 11.212-22.053 6.727-1.122a77.5 77.5 0 0 1-17.189 30.651M284.907 460.836l-2.992-9.719-17.942-19.438c4.487 11.591 11.591 21.31 20.934 29.157M348.449 339.361l3.361 17.565-20.926 15.326-26.541-1.871-3.366-22.799 17.571-11.963h.746zM400.778 421.592l-7.478.745-13.454-19.807-.745-27.662 14.577-2.99c5.605 10.093 8.968 21.679 8.968 34.012-.001 5.606-.747 10.839-1.868 15.702"/><path fill="none" stroke="#000" stroke-width="3.168" d="M330.884 478.032c39.244 0 71.761-32.523 71.761-72.143 0-39.244-32.517-71.39-71.761-71.39-39.25 0-71.768 32.146-71.768 71.39.001 39.62 32.518 72.143 71.768 72.143z"/></svg>

<svg enable-background="new 0 0 660 660" viewBox="0 0 660 660" xmlns="http://www.w3.org/2000/svg"><path d="M 81.196 6.5 h 499.368 v 399.39 c 0 137.55 -112.507 249.683 -249.68 249.683 C 193.703 655.573 81.57 543.44 81.57 405.89 h -.374 V 6.5 z"/><path d="M 557.761 405.89 c -.368 68.401 -30.271 129.704 -82.975 175.306 c -35.509 28.03 -75.127 44.85 -121.105 50.833 c -11.589 .747 -22.797 1.121 -34.388 .747 c -45.602 -3.364 -86.341 -17.943 -123.72 -44.853 c -53.826 -42.24 -85.966 -101.298 -91.205 -170.073 L 104 159.569 h 453.76 V 405.89 z" fill="#fff"/><path d="M 330.884 601.377 c 107.274 0 195.11 -87.837 195.11 -195.488 c 0 -106.897 -87.836 -194.735 -195.11 -194.735 c -107.274 0 -195.113 87.837 -195.113 194.735 C 135.771 513.54 223.61 601.377 330.884 601.377 z" fill="#ee3124"/><path d="M 330.884 554.281 c 81.478 0 148.014 -66.53 148.014 -148.391 c 0 -81.109 -66.536 -147.639 -148.014 -147.639 c -81.486 0 -148.02 66.53 -148.02 147.639 C 182.864 487.751 249.398 554.281 330.884 554.281 z" fill="#fff"/><path d="M 330.884 516.902 c 60.921 0 110.635 -50.085 110.635 -111.012 c 0 -60.922 -49.714 -110.266 -110.635 -110.266 c -60.93 0 -110.642 49.344 -110.642 110.266 C 220.243 466.817 269.955 516.902 330.884 516.902 z" fill="#ee3124"/><path d="M 330.884 478.032 c 39.244 0 71.761 -32.523 71.761 -72.143 s -32.517 -71.39 -71.761 -71.39 c -39.25 0 -71.768 31.77 -71.768 71.39 S 291.634 478.032 330.884 478.032 z"/><path d="M 104 28.001 H 557.76 V 141.627 H 104 Z" fill="#fff"/><path d="M 196.324 135.651 c -34.762 0 -57.191 -20.182 -57.191 -50.459 c 0 -14.579 5.606 -26.539 13.455 -34.387 c 8.221 -8.222 16.446 -11.964 26.915 -14.58 c 4.857 -1.121 10.464 -1.496 15.695 -1.496 c 21.684 0 40.746 8.223 49.713 23.175 c 5.233 7.852 7.479 16.446 7.479 26.164 c 0 19.067 -8.225 34.762 -25.045 44.48 C 218.748 133.034 208.284 135.651 196.324 135.651 L 196.324 135.651 z M 195.948 112.102 c 7.474 0 14.575 -3.365 18.686 -11.958 c 1.872 -4.112 2.994 -8.974 2.994 -14.952 c 0 -8.597 -2.242 -15.324 -5.232 -19.812 c -3.366 -4.111 -9.344 -7.477 -16.071 -7.477 c -7.853 0 -14.956 4.111 -19.068 12.334 c -1.866 4.112 -2.986 8.974 -2.986 14.955 c 0 8.97 2.242 15.697 7.098 20.928 C 184.733 109.862 189.591 112.102 195.948 112.102 z"/><path d="M 336.49 135.651 L 304.343 135.651 L 304.343 34.728 L 382.088 34.728 L 382.088 59.397 L 336.49 59.397 L 336.49 75.845 L 373.119 75.845 L 373.119 100.143 L 336.49 100.143 Z"/><path d="M 485.999 135.651 h -51.954 V 34.728 h 51.203 c 12.335 0 21.678 1.87 27.661 5.607 c 7.849 4.861 11.96 11.59 11.96 20.559 c 0 8.598 -4.482 15.701 -13.832 21.308 c 10.47 2.617 17.197 11.215 17.197 23.174 c 0 8.97 -2.615 16.071 -7.848 20.932 c -3.365 3.361 -10.838 6.727 -17.571 7.848 C 499.456 135.276 493.847 135.651 485.999 135.651 L 485.999 135.651 z M 477.403 57.532 h -10.464 v 17.942 h 12.334 c 10.463 0 14.201 -4.111 14.201 -8.973 c 0 -4.114 -2.617 -7.474 -6.727 -8.225 C 485.625 57.903 481.889 57.532 477.403 57.532 L 477.403 57.532 z M 480.393 93.416 h -13.455 v 19.061 h 13.455 c 13.08 0 16.446 -3.366 16.446 -9.719 C 496.839 96.776 493.847 93.416 480.393 93.416 z"/><path d="M 170.528 181.997 c 22.053 0 40.373 16.071 40.373 35.885 c 0 19.813 -18.319 36.258 -40.373 36.258 c -22.422 0 -40.738 -16.445 -40.738 -36.258 C 129.79 198.068 148.106 181.997 170.528 181.997 z" fill="#ee3124"/><path d="M 145.115 32.863 c 6.35 0 11.212 4.481 11.212 10.088 c 0 5.233 -4.862 9.719 -11.212 9.719 c -5.982 0 -11.215 -4.487 -11.215 -9.719 C 133.9 37.344 139.133 32.863 145.115 32.863 z"/><path d="M 246.407 32.863 c -6.353 0 -11.215 4.481 -11.215 10.088 c 0 5.233 4.862 9.719 11.215 9.719 c 6.352 0 11.214 -4.487 11.214 -9.719 C 257.622 37.344 252.759 32.863 246.407 32.863 z"/><path d="M 491.232 254.14 c -22.053 0 -40.369 -16.445 -40.369 -36.258 c 0 -19.814 18.316 -35.885 40.369 -35.885 c 22.429 0 40.74 16.071 40.74 35.885 C 531.972 237.695 513.661 254.14 491.232 254.14 z" fill="#ee3124"/><path d="M 335.366 403.65 L 357.793 418.6 L 376.109 402.53 L 374.984 374.868 L 354.056 360.289 L 334.995 375.238 Z" fill="#fff"/><path d="M 265.844 375.989 l 1.12 23.924 l 20.559 -3.742 l 13.083 -24.293 l -2.615 -22.43 l -17.196 5.232 C 274.442 361.038 269.581 368.141 265.844 375.989 z" fill="#fff"/><path d="M 310.326 420.841 L 310.696 446.262 L 331.252 460.836 L 354.802 446.636 L 356.298 422.711 L 333.869 407.012 Z" fill="#fff"/><path d="M 282.664 448.875 L 306.96 445.14 L 306.584 420.841 L 287.146 401.403 L 266.589 404.769 L 265.093 429.814 Z" fill="#fff"/><path d="M 332.378 478.032 v -14.205 l 23.175 -13.83 l 25.413 -.746 l .751 7.473 C 369.008 469.433 351.439 477.281 332.378 478.032 z" fill="#fff"/><path d="M 382.838 455.603 l -.75 -7.476 l 11.212 -22.053 l 6.727 -1.122 C 396.667 436.541 390.687 447.006 382.838 455.603 z" fill="#fff"/><path d="M 284.907 460.836 l -2.992 -9.719 l -17.942 -19.438 C 268.46 443.27 275.564 452.989 284.907 460.836 z" fill="#fff"/><path d="M 348.449 339.361 l 3.361 17.565 l -20.926 15.326 l -26.541 -1.871 l -3.366 -22.799 l 17.571 -11.963 c 0 0 .371 0 .746 0 L 348.449 339.361 z" fill="#fff"/><path d="M 400.778 421.592 l -7.478 .745 l -13.454 -19.807 l -.745 -27.662 l 14.577 -2.99 c 5.605 10.093 8.968 21.679 8.968 34.012 C 402.645 411.496 401.899 416.729 400.778 421.592 z" fill="#fff"/><path d="M 330.884 478.032 c 39.244 0 71.761 -32.523 71.761 -72.143 c 0 -39.244 -32.517 -71.39 -71.761 -71.39 c -39.25 0 -71.768 32.146 -71.768 71.39 C 259.117 445.509 291.634 478.032 330.884 478.032 z" fill="none" stroke="#000" stroke-width="3.168"/></svg>
